X:1
T:Gioite cantate
T:Gioite cantate
T:Bartolomeo Spighi da Prato
C:Bartolomeo Spighi da Prato
%%score [ 1 2 ] { 3 | 4 }
L:1/8
Q:1/4=120
M:3/2
K:F
V:1 treble nm="Soprano 1" snm="S 1"
V:2 treble nm="Soprano 2" snm="S 2"
V:3 treble nm="MusicXML Part"
V:4 bass 
V:1
"^Source: Musical Concerto d'arie e canzonette---Fiorenza---Z.Pignoni---1641.\nEditor: André Vierendeels (19/09/08)\nContinuo: André Vierendeels""^Canzonetta in lode dell' illustrissimo signor Cav.Ludovico da Verrazzano." z4 c2 A2 F2 f2"^CAZONETTA" | %1
w: Gio- i- te can-|
w: Di Flo- ra'e- bel|
w: Del tra- ce, e|
w: L'Is- pa- no l'o-|
 d2 A2 F2 A2 F2 A2 | G2 D3 E F6- | F2 B2 A2 G6 | F6 z6 | z12 | z12 | z6 z2 z2 A2 | %8
w: ta- te, gio- i- te can-|ta- te fes- to-|* si cor- re-|te|||gio-|
w: fio- re del cie- lo u-|na stel _ la|_ d'e- tru- ri-|a,|||di|
w: del mo- ro l'in- seg- ne|pre- da- * te,|_ le gem- *|me|||del|
w: no- ra, il Tra- ce lo|te- me, l'E- trus-|* co l'a- do-|ra,|||l'Is-|
 F2 D2 d2 c2 A2 c2 | B2 G2 B2 A2 F2 G2 | A2 G2 F2 F4 E2 | F4 c2 d2 d2 e2 | f2 gf"^b" ed c2 c2 d2 | %13
w: i- te can- ta- te, gio-|i- te can- ta- te fes-|to- si cor- re- *|te, tri- on- fi- nal-|za- * * * * * te le|
w: Flo- ra'e bel fio- re del|cie- lo u- na stel- *|la d'e- tru- ri- *|a, un splen- do- re|del mar- * * * * r'e fiam-|
w: tra- ce e del mo- ro|l'in- seg- ne pre- da- *|* te le gem- *|me e dell' O- ro|le glo- * * * * rie can-|
w: pa- no l'o- no ra, il|Tra- ce lote- me, l'E- trus-|co _ l'a- do- *|ra il Fran- co ne|ge- * * * * * me, il|
 _e2 e2 d2 c2 c2 c2 | B4 B2 z6 :: z2 z2 c2 d4 c2 | B2 A2 B2 c4 B2 | A2 G2 A2 B6- | B2 c2 B2 A6 | %19
w: pal- me, le pal- me por-|ge- te.|su su lo-|da- te, su su lo-|da- te con vo-|* c'e, con- ma-|
w: mel- la, fiam- mel- * *|* la.|su su cor-|re- t'e gio- i- te|gio- i- t'e can-|* ta- te sue|
w: ta- te, le glo- rie can-|ta- te.|su su ve-|ni- te chi bra- ma|l'o- no- re pren-|* da l'e- sem-|
w: Fran- co le ge- me, le|ge- me|su su lie-|ti se- gui- am lo|splen- do- * re|_ e o- *|
 G6 A2 A2 B2 | cBcA Bc d4 cB | AGAF GA B2 B2 c2 | G6 F6 :| %23
w: ne l'e- trus- co|e- * * * * * * * *|* * * * ro'il _ gran Ver- raz-|za- to.|
w: glo- ri'e tro- fei,|tro- * * * fei _ in- nal- *|* * * * za _ te, in- nal-|za- te.|
w: pio de tan- to|va- * * * * * lo- * *|re _ _ _ da _ tan- to va-|lo- re.|
w: nor si ri- cer-|ca'a _ _ _ _ _ chi _ _|_ _ _ _ _ _ _ se- gue'o-|no- re|
V:2
 z6 z2 z2 A2 | F2 E2 d2 c2 A2 c2 | B2 G2 B2 A2 F2 G2 | A2 G2 F2 F4 E2 | F4 c2 d2 d2 e2 | %5
w: Gio-|i- te can- ta- te, gio-|i- te can- ta- te fes-|to- si cor- re- *|te, tri- on- fi- nal-|
w: Di|Flo- ra'e bel fio- re del|cie- lo u- na stel- *|la d'e- tru- ri- *|a un splen- do- re|
w: Del|tra- ce e del mo- ro|l'in- seg- ne pre- da- le|gem- me, le gem- *|me e dell' O- ro|
w: L'Is-|pa- no l'o- no- ra il|Tra- ce lo te- me, l'E-|trus- co l'a- do- *|ra Il Fran- co le|
 f2 gf"^b" ed c2 c2 d2 | _e2 f2 e2 d6 | c4 c2 A2 F2 f2 | d2 B2 F2 A2 F2 A2 | G2 D3 E F6- | %10
w: za- * * * * * t'e le|pal- me por- ge-|te, gio- i- te can-|ta- te, gio- i- te can-|ta- te fes- to-|
w: del ma- * * * * re'e fiam-|* * * mel-|la, di Flo- ra'e bel|fio- re del cie- lo u-|na stel- * la|
w: le glo- * * * * rie can-|ta _ _ _|te del tra- ce del|mo- ro l'in- seg- ne pre-|da- * * te|
w: ge _ _ _ _ _ me, il|Fran- co le gem-|me, l'Is- pa- no l'o-|no- ra il Tra- ce lo|te- me, l'E- trus-|
 F2 B2 A2 G6 | F4 A2 B2 B2 c2 | d2 _ed cB A2 A2 B2 | c2 c2 B2 B2 B2 A2 | B4 B2 z6 :: z6 z2 z2 F2 | %16
w: * so'il cor- re-|te, tri- on- fi- nal-|za- * * * * * te le|pal- me, le pal- me por-|ge- te.|su|
w: _ d'e- tru- ri-|a un splen- do- re|del ma- * * * * r'e fiam-|mel- la, fiam- mel- * *|* la.|su|
w: _ le gem- me|e dell' O- ro _|le glo- * * * * rie can-|ta- te, le glo- rie can-|ta- te|su|
w: * co l'a- do-|ra il Fran- co ne|ge- * * * * * me, il|Fran- co le- ge- me, le|ge- me.|su|
 G4 F2 _E2 D2 E2 | F4 _E2 D2 E2 F2 | G2 A2 G2 G4 ^F2 | G6 z6 | z6 D2 D2 E2 | FEFD EF G2 G2 F2 | %22
w: su lo- da- te, su|su lo- da- te con|vo- c'e con ma _|no,|l'e- trus- co|e- * * * ro'il _ gran Ver- raz-|
w: su cor- re- t'e gio-|i- t'e can- ta te|sue glo- ri- e'e tro-|fei|sue glo- ri'e|tro- * * * * fei in- nal- *|
w: su ve- ni- te chi|bra- ma l'o- no re|pren- da l'e- sem- *|pio|l'e- sem- pio|da _ _ _ _ _ tan- to va-|
w: su lie- ti se- gui-|am lo splen- do- re|e o- nor, e o|nor|si ri- cer-|ca'a _ _ _ _ _ chi se- gue'o-|
 F4 E2 F6 :| %23
w: za- * no.|
w: za- * te.|
w: lo- * re.|
w: no- * re.|
V:3
 [FAc]6 [FAc]6 | [DB]6 [FAc]6 | [DB]6 [D-FA-]6 | [DFA]2 [DB]4 [Gc]6 | [FAc]6 [DFB]4 [GB]2 | %5
 [FAc]2 [Gc]4 [Ac]4 [FA]2 | [Gc]2 [FAc]4 [DG=B]6 | [EGc]4 [FAc]8 | [DFB]6 [FAc]6 | [DB]6 [FA-]6 | %10
 [FA]2 [DG]4 [Gc]6 | [FAc]6 [FB]6 | [DFA]2 [Gc]4 [FAc]4 [GB]2 | [_EGc]2 [Ec]2 [Bd]2 [Gc]2 [Fc]4 | %14
 [DFB]12 :: [FAc]6 [FB]6 | [DB]6 [_EG]6 | [FAc]6 [DFB]6 | [GB]2 [Gc]4 [Ad]6 | [DG=B]6 [DFA]6 | %20
 [EGc]6 [DFB]6 | [FA]4 [Gc]2 [DFB]4 [Fc]2 | [Gc]6 [CFA]6 :| %23
V:4
 F,6 F,6 | B,,6 F,6 | G,6 D,4 E,2 | F,2 B,,4 C,6 | F,6 B,4 G,2 | F,2 _E,4 F,4 D,2 | C,2 F,4 G,6 | %7
 C,4 F,4 F,,4 | B,,6 F,6 | G,6 D,4 E,2 | F,2 B,,4 C,6 | F,,4 F,2 B,,4 A,,2 | D,2 C,4 F,4 D,2 | %13
 C,2 B,,2 D,2 _E,2 F,4 | B,,6 B,,2 A,,2 G,,2 :: F,,4 F,2 B,,4 F,2 | G,4 D,2 C,6 | %17
 F,4 C,2 B,,2 C,2 D,2 | _E,2 C,4 D,6 | %19
 G,,4 G,2 F,4"^Notes: Original keys: Ut 1st, Ut 1st, Fa 4rth\n           Third voice noted in black notes in original print\n            Editorial accidentals above the staff\n            Dotted brackets indicate black notes." D,2 | %20
 C,6 B,,4 C,2 | D,4 C,2 B,,4 A,,2 | C,6 F,,6 :| %23

